!!!COM: Bach, Johann Sebastian
!!!OTL: Herr Jesu Christ, dich zu uns wend'
!!!ONM: No. 136
!!!OCL: Erk
!!!YOE: Riemenschneider, Albert
!!!OPR: 371 Harmonized Chorales and 69 Chorale Melodies with Figured Bass
!!!OPT: Bach Chorale Harmonizations
**kern	**kern	**kern	**kern
! bass	! tenor	! alto	! soprano
*M4/4	*M4/4	*M4/4	*M4/4
*G:	*G:	*G:	*G:
4GG	4B	4d	4g
=1	=1	=1	=1
4GG	4d	4g	4b
4FF#	4d	[4a	4dd
8GG	4d	8a]	4b
8BB	.	[8g	.
4D	4d	8g]	4a
.	.	8f#	.
=2	=2	=2	=2
8G	4d	4g	4b
8F#	.	.	.
4E	4e	4g	4cc#
4D;	4A;	4f#;	4dd;
8A	4cn	4a	4ee
8G	.	.	.
=3	=3	=3	=3
4F#	4d	[4a	8dd
.	.	.	8cc
4G	4d	8a]	4b
.	.	[8g	.
8C#	8e	8g]	4a
8D#	4B	8f#	.
8E	.	8e	8g
8F#	[8A	8d	8a
=4	=4	=4	=4
4G	8A]	4d	4b
.	[8G	.	.
4Dn	8G]	4d	4a
.	8F#	.	.
4GG;	4B;	4d;	4g;
4D	4d	4f#	4a
=5	=5	=5	=5
8GG	4d	4g	4b
8AA	.	.	.
8BB	4d	4g	4b
8C#	.	.	.
8D	4d	4g	4a
8E	.	.	.
8F#	8A	4f#	4dd
8B	8d	.	.
=6	=6	=6	=6
8G	8B	4e	4dd
8E	8G	.	.
8A	4A	4e	4cc#
8AA	.	.	.
4D;	4A;	4f#;	4dd;
8G	4G	4d	4b
8Fn	.	.	.
=7	=7	=7	=7
8E	8G	4e	4ccn
8F#	8A	.	.
4G	4B	8d	4b
.	.	[8g	.
8C#	8e	8g]	4a
8D#	8B	[8f#	.
4E	4B	8f#]	4g
.	.	8e	.
=8	=8	=8	=8
8BB	4B	4d	4g
8Cn	.	.	.
4Dn	4A	4d	4f#
4GG;	4B;	4d;	4g;
==	==	==	==
*-	*-	*-	*-
!!!CDT: 1685/3//-1750/7/28
!!!OCY: Deutschland
!!!AGN: chorale
!!!AST: Baroque
!!!AIN: vox
!!!YOY: 1941
!!!PPP: New York; London
!!!PPR: G. Schirmer
!!!ENC: David Huron
!!!EED: David Huron
!!!YEN: United States of America
!!!YER: 1992
!!!YEC: Copyright 1992 David Huron
!!!YEM: Rights to all derivative electronic formats reserved.
!!!YER: March 20, 1996
!!!AMT: simple quadruple
!!!EEV: 1.1
